X:1
T:Nothing Between
T:Nothing Between
T:Charles A. Tindley, arrranged by F. A. Clark
T:Charles Albert Tindley, 1905
T:Public Domain Courtesy of the Cyber Hymnal™
T:Public Domain Courtesy of the Cyber Hymnal™
C:Charles A. Tindley, arrranged by F. A. Clark
Z:Public Domain
Z:Courtesy of the Cyber Hymnal™
%%score 1 ( 2 3 )
L:1/8
Q:1/4=90
M:6/8
K:G
V:1 treble 
V:2 bass 
V:3 bass 
V:1
 [DB][DB][DB] [DB]2 [DG] | ([EA][EG])[CE] [B,E] [B,D]2 | ([DG][DG])[DG] [DG]2 [DB] | %3
w: 1.~No- thing be- tween my|soul~and * my Sav- ior,|Naught~of * this world’s de-|
w: 2.~No- thing be- tween, like|world- * ly plea- sure;|Habits * of life, tho’|
w: 3.~No- thing be- tween, like|pride * or sta- tion;|Self * or friends shall|
w: 4.~No- thing be- tween, e’en|many * hard tri- als,|Tho’~the * whole world a-|
 ([^CB][CA])[CG] [DA]3 | [DB][DB][DB] [DB]2 [DG] | ([EA][EG])[CE] [B,E] [B,D]2 | %6
w: lu- * sive dream;|I have re- nounced all|sin- * ful plea- sure;|
w: harmless * they seem;|Must not my heart from|Him~ev- * er sev- er;|
w: not~in- * ter- vene;|Though it may cost me|much~trib- * u- la- tion,|
w: gainst~me * con- vene;|Watch- ing with prayer and|much~self * de- ni- al,|
 [DG][GB][Ge] [Gd]2 [DB] | [DA][B,G][CA] [B,G]2 z ||"^Refrain" [DG][DG][Ge] [Gd]2 [GB] | %9
w: Jes- us is mine, there’s|no- thing be- tween.||
w: He is my all, there’s|no- thing be- tween.||
w: I am re- solved, there’s|no- thing be- tween.||
w: I’ll~tri- umph at last, there’s|no- thing be- tween.||
 [DA][DG][DA] [DB][DG] z | [DG][DG][Ge] [Gd]2 [GB] | [^CA][CG][CB] [DA]3 | %12
w: |||
w: |||
w: |||
w: |||
 [DB][DB][DB] [DB]/[DB]/ z [DG] | [EA][EG][CE] [B,E] [B,D]2 | [DG][GB][Ge] [Gd]2 [DB] | %15
w: |||
w: |||
w: |||
w: |||
 [DA][B,G][CA] [B,G]3 |] %16
w: |
w: |
w: |
w: |
V:2
 [G,,G,][B,,G,][D,G,] G,2 [B,,G,] | ([C,G,][C,G,])[C,G,] [G,,G,] [G,,G,]2 | %2
w: ~ ~ ~ ~ ~|~ * ~ ~ ~|
 ([G,,G,][B,,G,])[D,G,] [G,B,]2 [G,,G,] | ([A,,G,][A,,G,])[A,,G,] [D,F,]3 | %4
w: ~ * ~ ~ ~|~ * ~ ~|
 [G,,G,][B,,G,][D,G,] G,2 [B,,G,] | ([C,G,][C,G,])[C,G,] [G,,G,] [G,,G,]2 | %6
w: ~ ~ ~ ~ ~|~ * ~ ~ ~|
 [G,B,][G,D][G,C] [G,B,]2 [G,,G,] | [D,F,][D,G,][D,F,] [G,,G,]2 z || [G,B,][G,B,][G,C] [G,B,]2 G, | %9
w: ~ ~ ~ ~ ~|~ ~ ~ ~|Noth- ing be- tween my|
 [D,F,][D,B,][D,C] [G,D][G,,B,] z | [G,B,][G,B,][G,C] [G,C]2 [G,,G,] | %11
w: soul and the Sav- ior,|So that His bless- èd|
 [A,,G,][A,,G,][A,,G,] [D,F,]3 | [G,,G,][B,,G,][D,G,] G,/[G,,G,]/ z [B,,G,] | %13
w: face may be seen;|Noth- ing pre- vent- ing the|
 [C,G,][C,G,][C,G,] [G,,G,] [G,,G,]2 | [G,B,][G,D][G,C] [G,B,]2 [G,,G,] | %15
w: least of His fa- vor;|Keep the way clear! Let|
 [D,F,][D,G,][D,F,] [G,,G,]3 |] %16
w: noth- ing be- tween.|
V:3
 x6 | x6 | x6 | x6 | x6 | x6 | x6 | x6 || x5 G, | x6 | x6 | x6 | x3 G,/ x5/2 | x6 | x6 | x6 |] %16

